X: 130977
T: My Love and I in the Garden
S: "Music from Ireland 3" (Bulmer & Sharpley)
Z: B.Black
R: reel
M: 4/4
L: 1/8
K: G
edBA GFGA|BdAc BEED|G2 GE DEGA|BddB A2 Bd|
edBA GFGA|BdAc BEED|GFGE DEGA|BdAc BGBc :|
d2 dc BGBd|eaaf gfed|d2 dc BGBd|eaaf g2 ge|
d2 dc BGBd|eaaf gfeB|d3f e3g|fgaf g4 :|
